icons/fill-new-food-dish-1-round.svg

<svg xmlns="http://www.w3.org/2000/svg" width="32px" height="32px" viewBox="0 0 32 32" version="1.1">
    <title>fill-new-food-dish-1-round</title>
    <g id="fill-new-food-dish-1-round" stroke-width="1" fill-rule="evenodd">
        <path d="M29,26 C29.5522847,26 30,26.4477153 30,27 C30,27.5522847 29.5522847,28 29,28 L3,28 C2.44771525,28 2,27.5522847 2,27 C2,26.4477153 2.44771525,26 3,26 L29,26 Z M16,4 C18.209139,4 20,5.790861 20,8 L20.0007456,10.5799793 C25.7833403,12.3013162 30,17.6582313 30,24 L2,24 C2,17.6578647 6.21714721,12.3006968 12.0002573,10.5796808 L12,8 C12,5.790861 13.790861,4 16,4 Z M16,6 C14.8954305,6 14,6.8954305 14,8 L14.0001595,10.1417549 C14.6533147,10.0483361 15.3210126,10 16,10 C16.6793345,10 17.347368,10.0483855 18.0008423,10.1418982 L18,8 C18,6.8954305 17.1045695,6 16,6 Z" id="&#24418;&#29366;" fill-rule="nonzero" />
    </g>
</svg>

<svg xmlns="http://www.w3.org/2000/svg" viewBox="0 0 32 32"><path fill="currentColor" d="M29 26a1 1 0 0 1 0 2H3a1 1 0 0 1 0-2zM16 4a4 4 0 0 1 4 4v2.58c5.783 1.721 10 7.078 10 13.42H2c0-6.342 4.217-11.7 10-13.42V8a4 4 0 0 1 4-4m0 2a2 2 0 0 0-2 2v2.142a14.119 14.119 0 0 1 4 0V8a2 2 0 0 0-2-2"/></svg>
